img/souse.svg

<svg width="41" height="27" viewBox="0 0 41 27" fill="none" xmlns="http://www.w3.org/2000/svg">
<path d="M40.4759 6.52683C40.4359 3.47243 37.9469 1 34.893 1C32.1647 1 29.8887 2.97394 29.4056 5.57299C28.4465 5.99877 26.7805 6.67965 25.7878 6.8454C24.5909 7.04504 23.1443 7.10512 21.4885 7.02348C18.3256 6.86758 15.168 5.83425 12.3567 4.03438C8.81909 1.76992 5.80609 1.24 2.5871 2.31616C1.33862 2.73362 0.5 3.91207 0.5 5.24918C0.5 5.68236 0.73468 6.08103 1.11188 6.28837C1.54309 6.52499 1.94623 6.72956 2.33624 6.92704C4.44897 7.99766 5.61291 8.58734 6.38409 11.8371C6.96026 14.2636 7.96826 16.2976 9.38061 17.8821C10.2632 18.8726 11.3069 19.6906 12.4937 20.3265C11.768 20.914 11.3023 21.814 11.3023 22.8211V24.8169C11.3023 25.4704 11.8269 26 12.4739 26H26.4302C27.0771 26 27.602 25.4704 27.602 24.8169V22.8211C27.602 21.8186 27.1406 20.9224 26.4204 20.3345C29.4441 18.5547 31.2858 15.5274 31.7475 11.573C31.9923 9.47711 31.7866 7.64952 31.6432 6.74928C31.6493 6.70091 31.6532 6.65161 31.6532 6.6017C31.6532 4.81755 33.1065 3.36613 34.893 3.36613C36.6792 3.36613 38.1327 4.81755 38.1327 6.6017C38.1327 6.65808 38.1367 6.71446 38.1446 6.77023C38.1462 6.78193 38.2756 7.95483 37.5529 8.79715C36.9606 9.48728 35.9141 9.83727 34.4429 9.83727C33.7956 9.83727 33.271 10.3669 33.271 11.0203C33.271 11.6735 33.7956 12.2031 34.4429 12.2031C36.6246 12.2031 38.267 11.5783 39.3241 10.3462C40.6208 8.83536 40.5256 6.99852 40.4759 6.52683ZM25.189 18.3212C24.2039 18.8917 23.087 19.2627 21.8687 19.4235C17.7864 19.962 10.6419 19.621 8.66345 11.2856C7.63806 6.96617 5.66845 5.96796 3.38757 4.81231C3.29785 4.76702 3.20752 4.72112 3.11627 4.67459C3.17731 4.62622 3.24719 4.58771 3.32379 4.56214C5.84759 3.71859 8.17364 4.15824 11.1015 6.03266C14.2549 8.05127 17.8068 9.21092 21.374 9.38684C23.1959 9.47649 24.8094 9.40686 26.1705 9.17949C27.1479 9.01651 28.4584 8.53127 29.4508 8.12274C29.5271 8.97092 29.5634 10.1192 29.412 11.362C29.0202 14.5831 27.5993 16.9246 25.189 18.3212ZM14.4917 21.9834H24.4126C24.879 21.9834 25.2583 22.3593 25.2583 22.8211V23.6342H13.6457V22.8211C13.6457 22.3593 14.0254 21.9834 14.4917 21.9834Z" fill="#FF7010" stroke="white"/>
</svg>

<svg width="41" height="27" fill="none" xmlns="http://www.w3.org/2000/svg"><path d="M40.476 6.527C40.436 3.472 37.946 1 34.893 1c-2.728 0-5.004 1.974-5.487 4.573-.96.426-2.625 1.107-3.618 1.272-1.197.2-2.644.26-4.3.178-3.162-.155-6.32-1.189-9.131-2.989-3.538-2.264-6.55-2.794-9.77-1.718A3.077 3.077 0 0 0 .5 5.25c0 .433.235.832.612 1.04.431.236.834.44 1.224.638 2.113 1.07 3.277 1.66 4.048 4.91.576 2.427 1.584 4.46 2.997 6.045.882.99 1.926 1.809 3.113 2.444a3.204 3.204 0 0 0-1.192 2.495v1.996c0 .653.525 1.183 1.172 1.183H26.43c.647 0 1.172-.53 1.172-1.183V22.82a3.204 3.204 0 0 0-1.182-2.487c3.024-1.78 4.866-4.807 5.327-8.761a18.19 18.19 0 0 0-.104-4.824 1.18 1.18 0 0 0 .01-.147 3.241 3.241 0 0 1 3.24-3.236 3.241 3.241 0 0 1 3.24 3.236c0 .056.004.112.012.168.001.012.13 1.185-.592 2.027-.592.69-1.639 1.04-3.11 1.04-.647 0-1.172.53-1.172 1.183 0 .654.525 1.183 1.172 1.183 2.182 0 3.824-.625 4.881-1.857 1.297-1.51 1.202-3.347 1.152-3.82ZM25.189 18.32c-.985.57-2.102.942-3.32 1.102-4.083.539-11.227.198-13.206-8.137-1.025-4.32-2.995-5.318-5.275-6.474l-.272-.137a.681.681 0 0 1 .208-.113c2.524-.843 4.85-.404 7.777 1.47 3.154 2.02 6.706 3.179 10.273 3.355 1.822.09 3.435.02 4.797-.208.977-.162 2.287-.648 3.28-1.056a15.6 15.6 0 0 1-.039 3.239c-.392 3.221-1.813 5.563-4.223 6.96Zm-10.697 3.662h9.92c.467 0 .846.376.846.838v.813H13.646v-.813c0-.462.38-.838.846-.838Z" fill="#FF7010" stroke="#fff"/></svg>
